images/UpgradeGraphics/BCHUpgrades_Icons/12.svg

<svg xmlns="http://www.w3.org/2000/svg" fill="none" viewBox="0 0 790.36 652.15" xmlns:v="https://vecta.io/nano"><rect width="169.486" height="169.486" rx="29" transform="matrix(.856088 .516831 -.856088 .516831 246.094 382)" fill="url(#B)"/><rect width="319.092" height="604.134" rx="52" transform="matrix(.856088 .516831 -.856088 .516831 517.195 175)" fill="url(#C)"/><rect width="319.092" height="604.134" rx="52" transform="matrix(.856088 .516831 -.856088 .516831 517.195 143)" fill="url(#D)"/><circle cx="80.927" cy="80.927" r="80.927" transform="matrix(.865855 .500294 -.865855 .500294 531.141 219.6)" fill="url(#E)"/><circle cx="80.927" cy="80.927" r="80.927" transform="matrix(.865855 .500294 -.865855 .500294 531.141 198.748)" fill="url(#F)"/><circle cx="80.927" cy="80.927" r="80.927" transform="matrix(.865855 .500294 -.865855 .500294 531.141 174.421)" fill="url(#E)"/><circle cx="80.927" cy="80.927" r="80.927" transform="matrix(.865855 .500294 -.865855 .500294 531.141 153.569)" fill="url(#F)"/><path d="M601.22 249.314c17.542-10.136 27.867-23.706 28.932-38.028s-7.205-28.353-23.177-39.322-38.485-18.077-63.088-19.92-49.509 1.714-69.794 9.968-34.473 20.603-39.762 34.608-1.293 28.648 11.197 41.034 32.567 21.613 56.263 25.86 49.287 3.203 71.715-2.924l-42.358-51.763 70.072 40.487z" fill="url(#G)"/><path d="M601.22 228.462c17.348-10.024 27.644-23.41 28.895-37.567s-6.632-28.08-22.123-39.073-37.488-18.275-61.736-20.436-49.02.952-69.524 8.736-35.282 19.687-41.472 33.405-3.355 28.273 7.959 40.852 30.301 22.285 53.287 27.241 48.337 4.808 71.146-.414l-36.504-53.231 70.072 40.487z" fill="url(#H)"/><mask id="A" fill="#fff"><path d="M601.22 228.462c17.348-10.024 27.644-23.41 28.895-37.567s-6.632-28.08-22.123-39.073-37.488-18.275-61.736-20.436-49.02.952-69.524 8.736-35.282 19.687-41.472 33.405-3.355 28.273 7.959 40.852 30.301 22.285 53.287 27.241 48.337 4.808 71.146-.414l-36.504-53.231 70.072 40.487z"/></mask><path d="M601.22 228.462c17.348-10.024 27.644-23.41 28.895-37.567s-6.632-28.08-22.123-39.073-37.488-18.275-61.736-20.436-49.02.952-69.524 8.736-35.282 19.687-41.472 33.405-3.355 28.273 7.959 40.852 30.301 22.285 53.287 27.241 48.337 4.808 71.146-.414l-36.504-53.231 70.072 40.487z" stroke="#fff" stroke-width="6" mask="url(#A)"/><rect width="169.486" height="169.486" rx="29" transform="matrix(.856088 .516831 -.856088 .516831 245.859 367.809)" fill="url(#I)"/><rect width="169.486" height="179.777" rx="29" transform="matrix(.856088 .516831 -.856088 .516831 249.906 338.277)" fill="url(#J)"/><rect width="169.486" height="169.486" rx="29" transform="matrix(.856088 .516831 -.856088 .516831 245.859 300.532)" fill="url(#I)"/><rect width="169.486" height="179.777" rx="29" transform="matrix(.856088 .516831 -.856088 .516831 249.906 271)" fill="url(#J)"/><rect y="2.067" width="146.573" height="151.136" rx="27" transform="matrix(.856088 .516831 -.856088 .516831 251.582 283.999)" stroke="#fff" stroke-width="4" style="mix-blend-mode:screen"/><path d="M360.117 363.5l-2.617 7-7.5 6-15.5 10-29.001 16-29.5 18.5-15 7.5-16.5 2-17-3.5-14.5-8-28.5-16.5L158 386l-14-8.5-7-7-1.98-8.505 1.101-186.997 223.996 1.318V363.5z" fill="url(#K)"/><path d="M628.5 178l-.006 9.5-1.5 10.5-8.5 16-17 14-71-40.5 35.5 52.5-13.5 2.5-19 1.5h-19l-17.491-2.499-35.484-14.499L449 217.5l-11-14-4.73-15v-9.13-7.87L432.523.002l198.894 1.17L628.5 178z" fill="url(#L)"/><path fill-rule="evenodd" d="M552.383 399.244c2.402-7.753-9.311-14.516-22.74-13.129l-55.846 5.767c-15.585 1.609-21.602 12.673-10.406 19.137l4.689 2.707-52.274 30.18c-10.073 5.816-10.073 15.245 0 21.061s26.406 5.816 36.48 0l52.273-30.18 4.689 2.708c11.196 6.463 30.359 2.99 33.147-6.008l9.988-32.243z" fill="#8dfff8" style="mix-blend-mode:screen"/><defs><linearGradient id="B" x1="109.513" y1="0" x2="38.396" y2="159.889" href="#M"><stop offset="1" stop-color="#a4fffe" stop-opacity=".51"/></linearGradient><linearGradient id="C" x1="323.156" y1="398.394" x2="-11.565" y2="384.336" href="#M"><stop offset="1" stop-color="#13edb1" stop-opacity=".22"/></linearGradient><linearGradient id="D" x1="323.156" y1="398.394" x2="-11.565" y2="384.336" href="#M"><stop offset="1" stop-color="#13b3d3" stop-opacity=".24"/></linearGradient><linearGradient id="E" x1="80.927" y1="0" x2="80.927" y2="161.854" href="#M"><stop offset="1" stop-color="#13b3d3"/></linearGradient><linearGradient id="F" x1="188.008" y1="161.854" x2="-27.291" y2="160.327" href="#M"><stop stop-color="#13edb1"/><stop offset="1" stop-color="#13b3d3"/></linearGradient><linearGradient id="G" x1="601.22" y1="168.339" x2="531.066" y2="289.754" href="#M"><stop offset="1" stop-color="#13b3d3"/></linearGradient><linearGradient id="H" x1="553.794" y1="282.034" x2="461.789" y2="120.526" href="#M"><stop stop-color="#13edb1"/><stop offset="1" stop-color="#13b3d3"/></linearGradient><linearGradient id="I" x1="109.513" y1="0" x2="38.396" y2="159.889" href="#M"><stop offset="1" stop-color="#13b3d3"/></linearGradient><linearGradient id="J" x1="171.645" y1="118.553" x2="-5.461" y2="105.277" href="#M"><stop stop-color="#13edb1"/><stop offset="1" stop-color="#13b3d3"/></linearGradient><linearGradient id="K" x1="247.002" y1="362.656" x2="248.102" y2="175.659" href="#M"><stop stop-color="#8dfff8" stop-opacity=".37"/><stop offset="1" stop-color="#559995" stop-opacity="0"/></linearGradient><linearGradient id="L" x1="530.927" y1="172.152" x2="531.936" y2=".587" href="#M"><stop stop-color="#8dfff8" stop-opacity=".37"/><stop offset="1" stop-color="#559995" stop-opacity="0"/></linearGradient><linearGradient id="M" gradientUnits="userSpaceOnUse"/></defs></svg>

<svg xmlns="http://www.w3.org/2000/svg" fill="none" viewBox="0 0 790.36 652.15">
<g id="Group 94">
<rect id="Rectangle 216" width="169.486" height="169.486" rx="29" transform="matrix(0.856088 0.516831 -0.856088 0.516831 246.094 382)" fill="url(#paint0_linear_149_8)"/>
<rect id="Rectangle 214" width="319.092" height="604.134" rx="52" transform="matrix(0.856088 0.516831 -0.856088 0.516831 517.195 175)" fill="url(#paint1_linear_149_8)"/>
<rect id="Rectangle 213" width="319.092" height="604.134" rx="52" transform="matrix(0.856088 0.516831 -0.856088 0.516831 517.195 143)" fill="url(#paint2_linear_149_8)"/>
<g id="Group 70">
<circle id="Ellipse 38" cx="80.927" cy="80.927" r="80.927" transform="matrix(0.865855 0.500294 -0.865855 0.500294 531.141 219.6)" fill="url(#paint3_linear_149_8)"/>
<circle id="Ellipse 37" cx="80.927" cy="80.927" r="80.927" transform="matrix(0.865855 0.500294 -0.865855 0.500294 531.141 198.748)" fill="url(#paint4_linear_149_8)"/>
</g>
<g id="Group 69">
<circle id="Ellipse 38_2" cx="80.927" cy="80.927" r="80.927" transform="matrix(0.865855 0.500294 -0.865855 0.500294 531.141 174.421)" fill="url(#paint5_linear_149_8)"/>
<circle id="Ellipse 37_2" cx="80.927" cy="80.927" r="80.927" transform="matrix(0.865855 0.500294 -0.865855 0.500294 531.141 153.569)" fill="url(#paint6_linear_149_8)"/>
</g>
<path id="Ellipse 38_3" d="M601.22 249.314C618.762 239.178 629.087 225.608 630.152 211.286C631.218 196.964 622.947 182.933 606.975 171.964C591.002 160.995 568.49 153.887 543.887 152.044C519.283 150.201 494.378 153.758 474.093 162.012C453.809 170.265 439.62 182.615 434.331 196.62C429.042 210.626 433.038 225.268 445.528 237.654C458.019 250.039 478.095 259.267 501.791 263.514C525.487 267.761 551.078 266.717 573.506 260.59L531.148 208.827L601.22 249.314Z" fill="url(#paint7_linear_149_8)"/>
<path id="Ellipse 37_3" d="M601.22 228.462C618.568 218.438 628.864 205.052 630.115 190.895C631.366 176.737 623.483 162.815 607.992 151.822C592.501 140.829 570.504 133.547 546.256 131.386C522.009 129.225 497.236 132.338 476.732 140.122C456.228 147.907 441.45 159.809 435.26 173.527C429.069 187.244 431.905 201.8 443.219 214.379C454.533 226.958 473.52 236.664 496.506 241.62C519.492 246.575 544.843 246.428 567.652 241.206L531.148 187.975L601.22 228.462Z" fill="url(#paint8_linear_149_8)"/>
<g id="Ellipse 39">
<mask id="path-10-inside-1_149_8" fill="white">
<path d="M601.22 228.462C618.568 218.438 628.864 205.052 630.115 190.895C631.366 176.737 623.483 162.815 607.992 151.822C592.501 140.829 570.504 133.547 546.256 131.386C522.009 129.225 497.236 132.338 476.732 140.122C456.228 147.907 441.45 159.809 435.26 173.527C429.069 187.244 431.905 201.8 443.219 214.379C454.533 226.958 473.52 236.664 496.506 241.62C519.492 246.575 544.843 246.428 567.652 241.206L531.148 187.975L601.22 228.462Z"/>
</mask>
<path d="M601.22 228.462C618.568 218.438 628.864 205.052 630.115 190.895C631.366 176.737 623.483 162.815 607.992 151.822C592.501 140.829 570.504 133.547 546.256 131.386C522.009 129.225 497.236 132.338 476.732 140.122C456.228 147.907 441.45 159.809 435.26 173.527C429.069 187.244 431.905 201.8 443.219 214.379C454.533 226.958 473.52 236.664 496.506 241.62C519.492 246.575 544.843 246.428 567.652 241.206L531.148 187.975L601.22 228.462Z" stroke="white" stroke-width="6" mask="url(#path-10-inside-1_149_8)"/>
</g>
<rect id="Rectangle 212" width="169.486" height="169.486" rx="29" transform="matrix(0.856088 0.516831 -0.856088 0.516831 245.859 367.809)" fill="url(#paint9_linear_149_8)"/>
<rect id="Rectangle 211" width="169.486" height="179.777" rx="29" transform="matrix(0.856088 0.516831 -0.856088 0.516831 249.906 338.277)" fill="url(#paint10_linear_149_8)"/>
<rect id="Rectangle 212_2" width="169.486" height="169.486" rx="29" transform="matrix(0.856088 0.516831 -0.856088 0.516831 245.859 300.532)" fill="url(#paint11_linear_149_8)"/>
<rect id="Rectangle 211_2" width="169.486" height="179.777" rx="29" transform="matrix(0.856088 0.516831 -0.856088 0.516831 249.906 271)" fill="url(#paint12_linear_149_8)"/>
<g id="Rectangle 215" style="mix-blend-mode:screen">
<rect y="2.06732" width="146.573" height="151.136" rx="27" transform="matrix(0.856088 0.516831 -0.856088 0.516831 251.582 283.999)" stroke="white" stroke-width="4"/>
</g>
<path id="Rectangle 217" d="M360.117 363.5L357.5 370.5L350 376.5L334.5 386.5L305.499 402.5L275.999 421L260.999 428.5L244.499 430.5L227.499 427L212.999 419L184.499 402.5L158 386L144 377.5L137 370.5L135.02 361.995L136.121 174.998L360.117 176.316L360.117 363.5Z" fill="url(#paint13_linear_149_8)"/>
<path id="Rectangle 218" d="M628.5 178L628.494 187.5L626.994 198L618.494 214L601.494 228L530.494 187.5L565.994 240L552.494 242.5L533.494 244L514.494 244L497.003 241.501L461.519 227.002L449 217.5L438 203.5L433.27 188.5L433.27 179.37L433.27 171.5L432.523 0.0019229L631.417 1.17242L628.5 178Z" fill="url(#paint14_linear_149_8)"/>
<g id="Group 71" style="mix-blend-mode:screen">
<path id="Union" fill-rule="evenodd" clip-rule="evenodd" d="M552.383 399.244C554.785 391.491 543.072 384.728 529.643 386.115L473.797 391.882C458.212 393.491 452.195 404.555 463.391 411.019L468.08 413.726L415.806 443.906C405.733 449.722 405.733 459.151 415.806 464.967C425.88 470.783 442.212 470.783 452.286 464.967L504.559 434.787L509.248 437.495C520.444 443.958 539.607 440.485 542.395 431.487L552.383 399.244Z" fill="#8DFFF8"/>
</g>
</g>
<defs>
<linearGradient id="paint0_linear_149_8" x1="109.513" y1="4.75522e-06" x2="38.3964" y2="159.889" gradientUnits="userSpaceOnUse">
<stop offset="1" stop-color="#A4FFFE" stop-opacity="0.51"/>
</linearGradient>
<linearGradient id="paint1_linear_149_8" x1="323.156" y1="398.394" x2="-11.5646" y2="384.336" gradientUnits="userSpaceOnUse">
<stop offset="1" stop-color="#13EDB1" stop-opacity="0.22"/>
</linearGradient>
<linearGradient id="paint2_linear_149_8" x1="323.156" y1="398.394" x2="-11.5646" y2="384.336" gradientUnits="userSpaceOnUse">
<stop offset="1" stop-color="#13B3D3" stop-opacity="0.24"/>
</linearGradient>
<linearGradient id="paint3_linear_149_8" x1="80.927" y1="0" x2="80.927" y2="161.854" gradientUnits="userSpaceOnUse">
<stop offset="1" stop-color="#13B3D3"/>
</linearGradient>
<linearGradient id="paint4_linear_149_8" x1="188.008" y1="161.854" x2="-27.2914" y2="160.327" gradientUnits="userSpaceOnUse">
<stop stop-color="#13EDB1"/>
<stop offset="1" stop-color="#13B3D3"/>
</linearGradient>
<linearGradient id="paint5_linear_149_8" x1="80.927" y1="0" x2="80.927" y2="161.854" gradientUnits="userSpaceOnUse">
<stop offset="1" stop-color="#13B3D3"/>
</linearGradient>
<linearGradient id="paint6_linear_149_8" x1="188.008" y1="161.854" x2="-27.2914" y2="160.327" gradientUnits="userSpaceOnUse">
<stop stop-color="#13EDB1"/>
<stop offset="1" stop-color="#13B3D3"/>
</linearGradient>
<linearGradient id="paint7_linear_149_8" x1="601.22" y1="168.339" x2="531.066" y2="289.754" gradientUnits="userSpaceOnUse">
<stop offset="1" stop-color="#13B3D3"/>
</linearGradient>
<linearGradient id="paint8_linear_149_8" x1="553.794" y1="282.034" x2="461.789" y2="120.526" gradientUnits="userSpaceOnUse">
<stop stop-color="#13EDB1"/>
<stop offset="1" stop-color="#13B3D3"/>
</linearGradient>
<linearGradient id="paint9_linear_149_8" x1="109.513" y1="4.75522e-06" x2="38.3964" y2="159.889" gradientUnits="userSpaceOnUse">
<stop offset="1" stop-color="#13B3D3"/>
</linearGradient>
<linearGradient id="paint10_linear_149_8" x1="171.645" y1="118.553" x2="-5.46087" y2="105.277" gradientUnits="userSpaceOnUse">
<stop stop-color="#13EDB1"/>
<stop offset="1" stop-color="#13B3D3"/>
</linearGradient>
<linearGradient id="paint11_linear_149_8" x1="109.513" y1="4.75522e-06" x2="38.3964" y2="159.889" gradientUnits="userSpaceOnUse">
<stop offset="1" stop-color="#13B3D3"/>
</linearGradient>
<linearGradient id="paint12_linear_149_8" x1="171.645" y1="118.553" x2="-5.46087" y2="105.277" gradientUnits="userSpaceOnUse">
<stop stop-color="#13EDB1"/>
<stop offset="1" stop-color="#13B3D3"/>
</linearGradient>
<linearGradient id="paint13_linear_149_8" x1="247.002" y1="362.656" x2="248.102" y2="175.659" gradientUnits="userSpaceOnUse">
<stop stop-color="#8DFFF8" stop-opacity="0.37"/>
<stop offset="1" stop-color="#559995" stop-opacity="0"/>
</linearGradient>
<linearGradient id="paint14_linear_149_8" x1="530.927" y1="172.152" x2="531.936" y2="0.586951" gradientUnits="userSpaceOnUse">
<stop stop-color="#8DFFF8" stop-opacity="0.37"/>
<stop offset="1" stop-color="#559995" stop-opacity="0"/>
</linearGradient>
</defs>
</svg>
